X:507
T:Tyska Polka 
C:Joe Buchanan's Scottish Tome - Page 484.0
I:484 0
R:Polka
Z:Carl Allison
L:1/8
M:4/4
K:C
FG | A>BAF A2 d2 | B>cBG B2 e2 | A2 ce g2 fe | a2 (ag) f2 d2 |
A>BAF A2 d2 | B>cBG B2 e2 | A2 ce g2 fe | d2 [Fd]2 [Fd]2 :|
fg | afdf A2 df | a2 g2 g4 | gece A2 ce | g2 f2 f4 |
afdf A2 df | a2 g2 g4 | gece agfe | d2 [Fd]2 [Fd]2 :|
W:2nd Fiddle
%%vskip 0
[K:D] de | FGFD F2 A2 | G>AGE G2 B2 | A2 ABc2 dB | A2 (Bc) d2 AG |
FGFD F2 A2 | G>AGE G2 B2 | A2 AB cABc | d2 [Dd]2 [Dd]2 :|
de | fdAF DFAd | c2 B2 [Be]4 | A2 AB dedB | ABAG F2 Ad |
fdAF DFAd | c2 B2 [GB]4 | A2 AB cABc | d2 [Dd]2 [Dd]2 :|

